X: 10
T: Salamanca, The
Z: Erik-Fiddler
S: https://thesession.org/tunes/99#setting52628
R: reel
M: 4/4
L: 1/8
K: Dmaj
|:dB|AD F/E/D AD (3D/D/D/D|Adcd fedc|BE (3E/E/E/E BEGA|B2 BA B/c/d eg|
fB ~(3B/A/B/B fBde|faec dfag|fdec dBAG|1 FGEF D2:|2 FGEF D3 a||
|:{b}afdf bgeg|fd (3d/d/d/d dcBA|{B}Ad{e}dc defg|a/b/a ^g2 a2 f=g|
af ~(3f/e/f/f gf e/f/g|fd{e}dc dfag|fdec dBAG|1 FGEF D3 a:|2 FGEF D2||

%-------------------- TUNE SEPARATOR --------------------%

